src/assets/img/icons/duotone-icons/Code/Lock-circle.svg

<?xml version="1.0" encoding="UTF-8"?>
<svg width="24px" height="24px" viewBox="0 0 24 24" version="1.1" xmlns="http://www.w3.org/2000/svg" xmlns:xlink="http://www.w3.org/1999/xlink">
    <!-- Generator: Sketch 52.2 (67145) - http://www.bohemiancoding.com/sketch -->
    <title>Stockholm-icons / Code / Lock-circle</title>
    <desc>Created with Sketch.</desc>
    <g id="Stockholm-icons-/-Code-/-Lock-circle" stroke="none" stroke-width="1" fill="none" fill-rule="evenodd">
        <rect id="bound" x="0" y="0" width="24" height="24"></rect>
        <circle id="Oval-5" fill="#335EEA" opacity="0.3" cx="12" cy="12" r="10"></circle>
        <path d="M14.5,11 C15.0522847,11 15.5,11.4477153 15.5,12 L15.5,15 C15.5,15.5522847 15.0522847,16 14.5,16 L9.5,16 C8.94771525,16 8.5,15.5522847 8.5,15 L8.5,12 C8.5,11.4477153 8.94771525,11 9.5,11 L9.5,10.5 C9.5,9.11928813 10.6192881,8 12,8 C13.3807119,8 14.5,9.11928813 14.5,10.5 L14.5,11 Z M12,9 C11.1715729,9 10.5,9.67157288 10.5,10.5 L10.5,11 L13.5,11 L13.5,10.5 C13.5,9.67157288 12.8284271,9 12,9 Z" id="Combined-Shape" fill="#335EEA"></path>
    </g>
</svg>

<svg width="24" height="24" viewBox="0 0 24 24" xmlns="http://www.w3.org/2000/svg"><g fill="none" fill-rule="evenodd"><path d="M0 0h24v24H0z"/><circle fill="#335EEA" opacity=".3" cx="12" cy="12" r="10"/><path d="M14.5 11a1 1 0 011 1v3a1 1 0 01-1 1h-5a1 1 0 01-1-1v-3a1 1 0 011-1v-.5a2.5 2.5 0 115 0v.5zM12 9a1.5 1.5 0 00-1.5 1.5v.5h3v-.5A1.5 1.5 0 0012 9z" fill="#335EEA"/></g></svg>
